img/index/navigation_cart.svg

<svg width="17" height="16" viewBox="0 0 17 16" fill="none" xmlns="http://www.w3.org/2000/svg">
<path fill-rule="evenodd" clip-rule="evenodd" d="M1.31254 0.489586C0.944351 0.489586 0.645874 0.788063 0.645874 1.15625C0.645874 1.52444 0.944351 1.82292 1.31254 1.82292H3.37353L3.91319 4.5192C3.91612 4.538 3.91985 4.55654 3.92432 4.57479L5.01308 10.0146L5.0132 10.0151C5.10338 10.4685 5.35008 10.8757 5.71016 11.1656C6.06854 11.4541 6.51652 11.608 6.97639 11.6009H13.3011C13.761 11.608 14.209 11.4541 14.5673 11.1656C14.9276 10.8756 15.1743 10.4681 15.2644 10.0146L15.2644 10.0146L15.2654 10.0096L16.3084 4.54045C16.3456 4.34528 16.2938 4.14368 16.1672 3.9906C16.0405 3.83751 15.8522 3.7489 15.6535 3.7489H5.11879L4.57369 1.02541C4.51133 0.713843 4.23774 0.489586 3.91999 0.489586H1.31254ZM6.32068 9.75385L5.38566 5.08223H14.8477L13.9562 9.75686C13.9268 9.90268 13.8472 10.0336 13.7313 10.1269C13.6148 10.2207 13.4691 10.2705 13.3196 10.2676L13.3196 10.2675H13.3068H6.9707V10.2674L6.95793 10.2676C6.80844 10.2705 6.66271 10.2207 6.54624 10.1269C6.42978 10.0332 6.35 9.90146 6.32087 9.75481L6.32068 9.75385ZM5.21043 14.1936C5.21043 13.4657 5.80055 12.8755 6.5285 12.8755C7.25644 12.8755 7.84656 13.4657 7.84656 14.1936C7.84656 14.9216 7.25644 15.5117 6.5285 15.5117C5.80055 15.5117 5.21043 14.9216 5.21043 14.1936ZM12.3804 14.1936C12.3804 13.4657 12.9705 12.8755 13.6985 12.8755C14.4264 12.8755 15.0166 13.4657 15.0166 14.1936C15.0166 14.9216 14.4264 15.5117 13.6985 15.5117C12.9705 15.5117 12.3804 14.9216 12.3804 14.1936Z" fill="#2D3440"/>
</svg>

<svg width="17" height="16" viewBox="0 0 17 16" fill="none" xmlns="http://www.w3.org/2000/svg"><path fill-rule="evenodd" clip-rule="evenodd" d="M1.313.49a.667.667 0 0 0 0 1.333h2.06l.54 2.696a.662.662 0 0 0 .011.056l1.09 5.44a1.97 1.97 0 0 0 1.962 1.586h6.325a1.97 1.97 0 0 0 1.963-1.586l.001-.005 1.043-5.47a.667.667 0 0 0-.655-.791H5.12l-.545-2.724A.667.667 0 0 0 3.92.49H1.313ZM6.32 9.754l-.935-4.672h9.462l-.892 4.675a.637.637 0 0 1-.636.51H6.958a.637.637 0 0 1-.637-.512v-.001Zm-1.11 4.44a1.318 1.318 0 1 1 2.636 0 1.318 1.318 0 0 1-2.637 0Zm7.17 0a1.318 1.318 0 1 1 2.636 0 1.318 1.318 0 0 1-2.637 0Z" fill="#2D3440"/></svg>
